X:1478
T:Debka Hilel
O:england
M:4/4
L:1/8
Q:220
C:Israeli
K:Dm
D2 A2 ^GA F2|EFED F4|D2 G2 GA F2|EFED F2 G2|
D2 A2 ^GA F2|EFED F2 D2|C2 D2 EFED|FE D2 D4:|
G2 G2 GA G2|GAGF G4|E2 F2 GA F2|EFED F2 G2|
G2 G2 GA B2|cBAG A4|EF G4 FE|DEDC D4:|


